X: 450
T: The Butcher's Dog
C:Charles Sawtelle
B: jims roots
M:4/4
L:1/8
Q: 1/4=100
K:A
V:1 
"A"e=gag edcB | AGAB AFE2 | e=gag edcB | AGAE "E"B2E2 |
"A"e=gag edcB | AGAB AFEA | FGAF EDCD | "E"ECB,G, "A"A,2z2 ||
"A"E=GAA EGAA | E=GAd edAG | "G"E=GAG EGAG | E=GA=c dcAG |
"A"E=GAA EGAA | E=GAd edeg | a=ged cBAF | "E"E=GA2 "A"A4 ||
% abcbook-tune_id 6298c245e8b40150d06afe03


% abcbook-boost 0
% abcbook-tablature 
% abcbook-transpose 
% abcbook-lastupdated 1654178373596
% abcbook-soundfonts 
% abcbook-repeats 1


